X:25
T:384. Mills are Grinding, the
T:Flowers of Limerick, the
R:reel
S:Mike Rafferty
N:The Bunch of Keys is similar but has a third part which is like
N:a variation on the first part.
D:Ballinakill Ceili Band 1931 (as The Mills are Grinding) - 78rpm
D:Mike and Mary Rafferty
D:Joe Burke Tailor's Choice
Z:Lesl
M:C|
K:G
GF|DGGF G2GA|BGBd cAAF|D2DE FEFG|A2cA BGAF|
DGGF G2GA|BGBd cAaf|d2de fdcA|AGFA ~G3F|
|DGGF G2GA|BGBd cAAF|DADE ~F3G|A2cA BGAF|
DGGF G2GA|BGBd cAaf|d2de fdcA|AGFA ~G3z||
|:dggf gz ga|b~g3 a~g2f|dz de ~f3g|agfg a~g2f|
dggf gz ga|b~g3 a~g2f|dz de fdcA|1 AGFA ~G3z:|2 AGFA ~G2||

